Icons/com_estoty_game2048.svg

<svg viewBox="0 0 48 48" xmlns:xlink="http://www.w3.org/1999/xlink">
 <defs>
  <linearGradient id="0">
   <stop stop-opacity="0"/>
   <stop offset="1"/>
  </linearGradient>
  <linearGradient xlink:href="#0" id="1" gradientUnits="userSpaceOnUse" gradientTransform="translate(4e-7,-48)" y1="47" x2="0" y2="1"/>
  <clipPath id="2">
   <g transform="translate(0,-1004.3622)">
    <rect rx="4" y="1005.36" x="1" height="46" width="46" fill="#1890d0"/>
   </g>
  </clipPath>
  <clipPath id="3">
   <g transform="translate(0,-1004.3622)">
    <rect rx="4" y="1005.36" x="1" height="46" width="46" fill="#1890d0"/>
   </g>
  </clipPath>
 </defs>
 <g>
  <g transform="translate(0,-1004.3622)">
   <path d="m 5,1006.3622 c -2.216,0 -4,1.784 -4,4 l 0,37.25 c 0,2.216 1.784,4 4,4 l 38,0 c 2.216,0 4,-1.784 4,-4 l 0,-37.25 c 0,-2.216 -1.784,-4 -4,-4 l -38,0 z m -4,41.5 0,0.5 c 0,2.216 1.784,4 4,4 l 38,0 c 2.216,0 4,-1.784 4,-4 l 0,-0.5 c 0,2.216 -1.784,4 -4,4 l -38,0 c -2.216,0 -4,-1.784 -4,-4 z" opacity="0.02"/>
   <path d="m 1,1047.6122 0,0.25 c 0,2.216 1.784,4 4,4 l 38,0 c 2.216,0 4,-1.784 4,-4 l 0,-0.25 c 0,2.216 -1.784,4 -4,4 l -38,0 c -2.216,0 -4,-1.784 -4,-4 z" opacity="0.05"/>
   <rect width="46" height="46" x="1" y="1005.61" rx="4" opacity="0.1"/>
  </g>
 </g>
 <g>
  <g transform="translate(0,-1004.3622)">
   <rect rx="4" y="1005.36" x="1" height="46" width="46" fill="#ffd401"/>
  </g>
 </g>
 <g>
  <rect transform="scale(1,-1)" width="46" height="46" x="1" y="-46.998" rx="4" opacity="0.1" fill="url(#1)"/>
 </g>
 <g>
  <g clip-path="url(#2)">
   <g opacity="0.1">
    <g>
     <path d="M 11 11 L 11 37 L 37 37 L 37 11 Z M 12 12 L 36 12 L 36 36 L 12 36 Z M 12 12 "/>
     <path d="M 12 11.996094 L 24.003906 11.996094 L 24.003906 24 L 12 24 Z M 12 11.996094 "/>
     <path d="M 24 11.996094 L 36 11.996094 L 36 24 L 24 24 Z M 24 11.996094 "/>
     <path d="M 12 24 L 24.003906 24 L 24.003906 36 L 12 36 Z M 12 24 "/>
     <path d="M 24 24 L 36 24 L 36 36 L 24 36 Z M 24 24 "/>
     <path d="M 22 33 L 21 33 L 21 35 L 19 35 L 19 33 L 15 33 L 15 31 L 18.5 25 L 21 25 L 21 31 L 22 31 L 22 33 M 19 31 L 19 27 L 17 31 "/>
     <path d="M 21 23 L 15 23 L 15 21 C 18.117188 17.882812 19.890625 16.765625 18.539062 15.417969 C 17.910156 14.789062 17.203125 15.304688 16 16 L 15 14 C 16.769531 12.828125 18.695312 12.675781 20 14 C 22.691406 16.730469 18.875 19.367188 17.441406 21 C 18.945312 21 19.496094 21 21 21 "/>
     <path d="M 30 25 C 28.34375 25 27 26.34375 27 28 C 27 28.773438 27.519531 29.46875 28 30 C 27.519531 30.53125 27 31.226562 27 32 C 27 33.65625 28.34375 35 30 35 C 31.65625 35 33 33.65625 33 32 C 33 31.226562 32.480469 30.53125 32 30 C 32.480469 29.46875 33 28.773438 33 28 C 33 26.34375 31.65625 25 30 25 Z M 30 27 C 30.550781 27 31 27.449219 31 28 C 31 28.550781 30.335938 29 30 29 C 29.664062 29 29 28.550781 29 28 C 29 27.449219 29.449219 27 30 27 Z M 30 31 C 30.367188 31 31 31.449219 31 32 C 31 32.550781 30.550781 33 30 33 C 29.449219 33 29 32.550781 29 32 C 29 31.449219 29.632812 31 30 31 Z M 30 31 "/>
    </g>
   </g>
  </g>
 </g>
 <g>
  <g clip-path="url(#3)">
   <g transform="translate(0,-1)">
    <g>
     <path d="M 11 11 L 11 37 L 37 37 L 37 11 Z M 12 12 L 36 12 L 36 36 L 12 36 Z M 12 12 " fill="#b9b095"/>
     <path d="M 12 11.996094 L 24.003906 11.996094 L 24.003906 24 L 12 24 Z M 12 11.996094 " fill="#ececd4"/>
     <path d="M 24 11.996094 L 36 11.996094 L 36 24 L 24 24 Z M 24 11.996094 " fill="#e5d6ab"/>
     <path d="M 12 24 L 24.003906 24 L 24.003906 36 L 12 36 Z M 12 24 " fill="#ffcf53"/>
     <path d="M 24 24 L 36 24 L 36 36 L 24 36 Z M 24 24 " fill="#ffb95c"/>
     <path d="M 22 33 L 21 33 L 21 35 L 19 35 L 19 33 L 15 33 L 15 31 L 18.5 25 L 21 25 L 21 31 L 22 31 L 22 33 M 19 31 L 19 27 L 17 31 " fill="#96814d"/>
     <path d="M 21 23 L 15 23 L 15 21 C 18.117188 17.882812 19.890625 16.765625 18.539062 15.417969 C 17.910156 14.789062 17.203125 15.304688 16 16 L 15 14 C 16.769531 12.828125 18.695312 12.675781 20 14 C 22.691406 16.730469 18.875 19.367188 17.441406 21 C 18.945312 21 19.496094 21 21 21 " fill="#96814d"/>
     <path d="M 30 25 C 28.34375 25 27 26.34375 27 28 C 27 28.773438 27.519531 29.46875 28 30 C 27.519531 30.53125 27 31.226562 27 32 C 27 33.65625 28.34375 35 30 35 C 31.65625 35 33 33.65625 33 32 C 33 31.226562 32.480469 30.53125 32 30 C 32.480469 29.46875 33 28.773438 33 28 C 33 26.34375 31.65625 25 30 25 Z M 30 27 C 30.550781 27 31 27.449219 31 28 C 31 28.550781 30.335938 29 30 29 C 29.664062 29 29 28.550781 29 28 C 29 27.449219 29.449219 27 30 27 Z M 30 31 C 30.367188 31 31 31.449219 31 32 C 31 32.550781 30.550781 33 30 33 C 29.449219 33 29 32.550781 29 32 C 29 31.449219 29.632812 31 30 31 Z M 30 31 " fill="#96814d"/>
    </g>
   </g>
  </g>
 </g>
 <g>
  <g transform="translate(0,-1004.3622)">
   <path d="m 1,1043.3622 0,4 c 0,2.216 1.784,4 4,4 l 38,0 c 2.216,0 4,-1.784 4,-4 l 0,-4 c 0,2.216 -1.784,4 -4,4 l -38,0 c -2.216,0 -4,-1.784 -4,-4 z" opacity="0.1"/>
  </g>
 </g>
</svg>

<svg viewBox="0 0 48 48"><defs><linearGradient id="linearGradient3764" x1="1" x2="47" gradientUnits="userSpaceOnUse" gradientTransform="translate(-48.000001,0.00221467)"><stop stop-color="#ecc200" stop-opacity="1"/><stop offset="1" stop-color="#ffd401" stop-opacity="1"/></linearGradient><clipPath id="clipPath-614374504"><g transform="translate(0,-1004.3622)"><rect rx="4" y="1005.36" x="1" height="46" width="46" fill="#1890d0"/></g></clipPath><clipPath id="clipPath-628105030"><g transform="translate(0,-1004.3622)"><rect rx="4" y="1005.36" x="1" height="46" width="46" fill="#1890d0"/></g></clipPath></defs><g><path d="m 1 43 l 0 0.25 c 0 2.216 1.784 4 4 4 l 38 0 c 2.216 0 4 -1.784 4 -4 l 0 -0.25 c 0 2.216 -1.784 4 -4 4 l -38 0 c -2.216 0 -4 -1.784 -4 -4 z m 0 0.5 l 0 0.5 c 0 2.216 1.784 4 4 4 l 38 0 c 2.216 0 4 -1.784 4 -4 l 0 -0.5 c 0 2.216 -1.784 4 -4 4 l -38 0 c -2.216 0 -4 -1.784 -4 -4 z" opacity="0.02"/><path d="m 1 43.25 l 0 0.25 c 0 2.216 1.784 4 4 4 l 38 0 c 2.216 0 4 -1.784 4 -4 l 0 -0.25 c 0 2.216 -1.784 4 -4 4 l -38 0 c -2.216 0 -4 -1.784 -4 -4 z" opacity="0.05"/><path d="m 1 43 l 0 0.25 c 0 2.216 1.784 4 4 4 l 38 0 c 2.216 0 4 -1.784 4 -4 l 0 -0.25 c 0 2.216 -1.784 4 -4 4 l -38 0 c -2.216 0 -4 -1.784 -4 -4 z" opacity="0.1"/></g><g><rect width="46" height="46" x="-47" y="1" rx="4" transform="matrix(0,-1,1,0,0,0)" fill="url(#linearGradient3764)" fill-opacity="1"/></g><g><g clip-path="url(#clipPath-614374504)"><g opacity="0.1"><!-- color: #ffd401 --><g><path d="m 11 11 l 0 26 l 26 0 l 0 -26 m -25 1 l 24 0 l 0 24 l -24 0 m 0 -24" fill="#000"/><path d="m 12 11.996 l 12 0 l 0 12 l -12 0 m 0 -12" fill="#000"/><path d="m 24 11.996 l 12 0 l 0 12 l -12 0 m 0 -12" fill="#000"/><path d="m 12 24 l 12 0 l 0 12 l -12 0 m 0 -12" fill="#000"/><path d="m 24 24 l 12 0 l 0 12 l -12 0 m 0 -12" fill="#000"/><path d="m 22 33 l -1 0 l 0 2 l -2 0 l 0 -2 l -4 0 l 0 -2 l 3.5 -6 l 2.5 0 l 0 6 l 1 0 l 0 2 m -3 -2 l 0 -4 l -2 4" fill="#000"/><path d="m 21 23 l -6 0 l 0 -2 c 3.117 -3.117 4.891 -4.234 3.539 -5.582 c -0.629 -0.629 -1.336 -0.113 -2.539 0.582 l -1 -2 c 1.77 -1.172 3.695 -1.324 5 0 c 2.691 2.73 -1.125 5.367 -2.559 7 c 1.504 0 2.055 0 3.559 0" fill="#000"/><path d="m 30 25 c -1.656 0 -3 1.344 -3 3 c 0 0.773 0.52 1.469 1 2 c -0.48 0.531 -1 1.227 -1 2 c 0 1.656 1.344 3 3 3 c 1.656 0 3 -1.344 3 -3 c 0 -0.773 -0.52 -1.469 -1 -2 c 0.48 -0.531 1 -1.227 1 -2 c 0 -1.656 -1.344 -3 -3 -3 m 0 2 c 0.551 0 1 0.449 1 1 c 0 0.551 -0.664 1 -1 1 c -0.336 0 -1 -0.449 -1 -1 c 0 -0.551 0.449 -1 1 -1 m 0 4 c 0.367 0 1 0.449 1 1 c 0 0.551 -0.449 1 -1 1 c -0.551 0 -1 -0.449 -1 -1 c 0 -0.551 0.633 -1 1 -1 m 0 0" fill="#000"/></g></g></g></g><g><g clip-path="url(#clipPath-628105030)"><g transform="translate(0,-1)"><!-- color: #ffd401 --><g><path d="m 11 11 l 0 26 l 26 0 l 0 -26 m -25 1 l 24 0 l 0 24 l -24 0 m 0 -24" fill="#b9b095"/><path d="m 12 11.996 l 12 0 l 0 12 l -12 0 m 0 -12" fill="#ececd4"/><path d="m 24 11.996 l 12 0 l 0 12 l -12 0 m 0 -12" fill="#e5d6ab"/><path d="m 12 24 l 12 0 l 0 12 l -12 0 m 0 -12" fill="#ffcf53"/><path d="m 24 24 l 12 0 l 0 12 l -12 0 m 0 -12" fill="#ffb95c"/><path d="m 22 33 l -1 0 l 0 2 l -2 0 l 0 -2 l -4 0 l 0 -2 l 3.5 -6 l 2.5 0 l 0 6 l 1 0 l 0 2 m -3 -2 l 0 -4 l -2 4" fill="#96814d"/><path d="m 21 23 l -6 0 l 0 -2 c 3.117 -3.117 4.891 -4.234 3.539 -5.582 c -0.629 -0.629 -1.336 -0.113 -2.539 0.582 l -1 -2 c 1.77 -1.172 3.695 -1.324 5 0 c 2.691 2.73 -1.125 5.367 -2.559 7 c 1.504 0 2.055 0 3.559 0" fill="#96814d"/><path d="m 30 25 c -1.656 0 -3 1.344 -3 3 c 0 0.773 0.52 1.469 1 2 c -0.48 0.531 -1 1.227 -1 2 c 0 1.656 1.344 3 3 3 c 1.656 0 3 -1.344 3 -3 c 0 -0.773 -0.52 -1.469 -1 -2 c 0.48 -0.531 1 -1.227 1 -2 c 0 -1.656 -1.344 -3 -3 -3 m 0 2 c 0.551 0 1 0.449 1 1 c 0 0.551 -0.664 1 -1 1 c -0.336 0 -1 -0.449 -1 -1 c 0 -0.551 0.449 -1 1 -1 m 0 4 c 0.367 0 1 0.449 1 1 c 0 0.551 -0.449 1 -1 1 c -0.551 0 -1 -0.449 -1 -1 c 0 -0.551 0.633 -1 1 -1 m 0 0" fill="#96814d"/></g></g></g></g><g><g transform="translate(0,-1004.3622)"><path d="m 1 1043.36 0 4 c 0 2.216 1.784 4 4 4 l 38 0 c 2.216 0 4 -1.784 4 -4 l 0 -4 c 0 2.216 -1.784 4 -4 4 l -38 0 c -2.216 0 -4 -1.784 -4 -4 z" opacity="0.1"/></g></g></svg>
